; generated by Slic3r 1.1.7 on 2017-12-28 at 13:17:21

; perimeters extrusion width = 0.60mm
; infill extrusion width = 0.50mm
; solid infill extrusion width = 0.50mm
; top infill extrusion width = 0.45mm

G21 ; set units to millimeters
M104 S200 ; set temperature
M106

M109 S200 ; wait for temperature to be reached
G90 ; use absolute coordinates
G92 E0
M82 ; use absolute distances for extrusion
G1 Z0.250 F300.000
G1 F4800.000 E-4.00000
G92 E0
G1 X21.318 Y0.000 F300.000
G1 E4.00000 F4800.000
G1 X21.318 Y10.001 E4.45659 F180.000
G1 X20.920 Y12.976 E4.59367
G1 X19.753 Y15.743 E4.73075
G1 X17.900 Y18.105 E4.86783
G1 X15.491 Y19.897 E5.00491
G1 X12.696 Y20.993 E5.14198
G1 X10.000 Y21.318 E5.26595
G1 X-10.000 Y21.318 E6.17909
G1 X-12.976 Y20.920 E6.31617
G1 X-15.742 Y19.753 E6.45325
G1 X-18.105 Y17.900 E6.59032
G1 X-19.897 Y15.491 E6.72740
G1 X-20.992 Y12.696 E6.86448
G1 X-21.318 Y10.001 E6.98845
G1 X-21.318 Y-10.001 E7.90163
G1 X-20.920 Y-12.976 E8.03871
G1 X-19.753 Y-15.743 E8.17579
G1 X-17.900 Y-18.105 E8.31287
G1 X-15.491 Y-19.897 E8.44994
G1 X-12.696 Y-20.993 E8.58702
G1 X-10.000 Y-21.318 E8.71099
G1 X10.000 Y-21.318 E9.62413
G1 X12.976 Y-20.920 E9.76121
G1 X15.742 Y-19.753 E9.89828 F180.000
G1 X18.105 Y-17.900 E10.03536
G1 X19.897 Y-15.491 E10.17244
G1 X20.992 Y-12.696 E10.30952
G1 X21.318 Y-10.001 E10.43349
G1 X21.318 Y-0.060 E10.88734
G1 X20.879 Y0.000 F300.000
G1 X20.879 Y10.001 E11.34393 F180.000
G1 X20.480 Y12.917 E11.47831
G1 X19.315 Y15.619 E11.61269
G1 X17.468 Y17.911 E11.74707
G1 X15.074 Y19.623 E11.88145
G1 X12.309 Y20.631 E12.01583
G1 X10.000 Y20.879 E12.12184
G1 X-10.000 Y20.879 E13.03498
G1 X-12.916 Y20.481 E13.16936
G1 X-15.619 Y19.316 E13.30374
G1 X-17.910 Y17.468 E13.43812
G1 X-19.623 Y15.074 E13.57250
G1 X-20.631 Y12.309 E13.70688
G1 X-20.879 Y10.001 E13.81289
G1 X-20.879 Y-10.001 E14.72607
G1 X-20.480 Y-12.917 E14.86045
G1 X-19.315 Y-15.619 E14.99483
G1 X-17.468 Y-17.911 E15.12921
G1 X-15.074 Y-19.623 E15.26360
G1 X-12.309 Y-20.631 E15.39798
G1 X-10.000 Y-20.879 E15.50399
G1 X10.000 Y-20.879 E16.41712
G1 X12.916 Y-20.481 E16.55150
G1 X15.619 Y-19.316 E16.68588 F180.000
G1 X17.910 Y-17.468 E16.82026
G1 X19.623 Y-15.074 E16.95464
G1 X20.631 Y-12.309 E17.08902
G1 X20.879 Y-10.001 E17.19504
G1 X20.879 Y-0.060 E17.64889
G1 X20.439 Y0.000 F300.000
G1 X20.439 Y10.001 E18.10548 F180.000
G1 X20.041 Y12.856 E18.23711
G1 X18.877 Y15.493 E18.36873
G1 X17.036 Y17.712 E18.50036
G1 X14.659 Y19.343 E18.63199
G1 X11.926 Y20.261 E18.76361
G1 X10.000 Y20.440 E18.85192
G1 X-10.000 Y20.440 E19.76506
G1 X-12.855 Y20.042 E19.89668
G1 X-15.493 Y18.878 E20.02831
G1 X-17.712 Y17.037 E20.15994
G1 X-19.342 Y14.659 E20.29156
G1 X-20.260 Y11.926 E20.42319
G1 X-20.439 Y10.001 E20.51150
G1 X-20.439 Y-10.001 E21.42468
G1 X-20.041 Y-12.856 E21.55631
G1 X-18.877 Y-15.493 E21.68794
G1 X-17.036 Y-17.712 E21.81956
G1 X-14.659 Y-19.343 E21.95119
G1 X-11.926 Y-20.261 E22.08281
G1 X-10.000 Y-20.440 E22.17112
G1 X10.000 Y-20.440 E23.08426
G1 X12.855 Y-20.042 E23.21589
G1 X15.493 Y-18.878 E23.34751 F180.000
G1 X17.712 Y-17.037 E23.47914
G1 X19.342 Y-14.659 E23.61077
G1 X20.260 Y-11.926 E23.74239
G1 X20.439 Y-10.001 E23.83070
G1 X20.439 Y-0.060 E24.28455
G1 F4800.000 E20.28455
G92 E0
G1 X9.336 Y-9.336 F300.000
G1 E4.00000 F4800.000
G1 X9.336 Y9.336 E4.85253 F180.000
G1 X-9.336 Y9.336 E5.70500
G1 X-9.336 Y-9.336 E6.55753
G1 X9.276 Y-9.336 E7.40727
G1 X9.775 Y-9.776 F300.000
G1 X9.775 Y9.776 E8.29991 F180.000
G1 X-9.775 Y9.776 E9.19250
G1 X-9.775 Y-9.776 E10.08513
G1 X9.715 Y-9.776 E10.97498
G1 X9.575 Y-9.429 F300.000
G1 X8.997 Y-9.038 F300.000
G1 X9.037 Y-8.998 E10.97757 F180.000
G1 X9.037 Y-8.376 E11.00596
G1 X8.375 Y-9.038 E11.04870
G1 X7.753 Y-9.038 E11.07709
G1 X9.037 Y-7.754 E11.15999
G1 X9.037 Y-7.132 E11.18838
G1 X7.132 Y-9.038 E11.31143
G1 X6.510 Y-9.038 E11.33982
G1 X9.037 Y-6.510 E11.50302
G1 X9.037 Y-5.888 E11.53142
G1 X5.888 Y-9.038 E11.73478
G1 X5.266 Y-9.038 E11.76317
G1 X9.037 Y-5.266 E12.00668
G1 X9.037 Y-4.644 E12.03508
G1 X4.644 Y-9.038 E12.31875
G1 X4.022 Y-9.038 E12.34714
G1 X9.037 Y-4.023 E12.67096
G1 X9.037 Y-3.401 E12.69936
G1 X3.400 Y-9.038 E13.06333
G1 X2.778 Y-9.038 E13.09173
G1 X9.037 Y-2.779 E13.49586
G1 X9.037 Y-2.157 E13.52426
G1 X2.156 Y-9.038 E13.96854
G1 X1.534 Y-9.038 E13.99694
G1 X9.037 Y-1.535 E14.48138
G1 X9.037 Y-0.913 E14.50978
G1 X0.913 Y-9.038 E15.03437
G1 X0.291 Y-9.038 E15.06277
G1 X9.037 Y-0.291 E15.62752
G1 X9.037 Y0.331 E15.65592
G1 X-0.331 Y-9.038 E16.26082
G1 X-0.953 Y-9.038 E16.28922
G1 X9.037 Y0.953 E16.93428
G1 X9.037 Y1.574 E16.96268
G1 X-1.575 Y-9.038 E17.64789
G1 X-2.197 Y-9.038 E17.67629
G1 X9.037 Y2.196 E18.40166
G1 X9.037 Y2.818 E18.43006
G1 X-2.819 Y-9.038 E19.19558
G1 X-3.441 Y-9.038 E19.22398
G1 X9.037 Y3.440 E20.02966
G1 X9.037 Y4.062 E20.05806
G1 X-4.063 Y-9.038 E20.90389
G1 X-4.684 Y-9.038 E20.93229
G1 X9.037 Y4.684 E21.81828
G1 X9.037 Y5.306 E21.84668
G1 X-5.306 Y-9.038 E22.77283
G1 X-5.928 Y-9.038 E22.80122
G1 X9.037 Y5.928 E23.76752
G1 X9.037 Y6.550 E23.79592
G1 X-6.550 Y-9.038 E24.80238
G1 X-7.172 Y-9.038 E24.83077
G1 X9.037 Y7.172 E25.87738
G1 X9.037 Y7.793 E25.90578
G1 X-7.794 Y-9.038 E26.99255
G1 X-8.416 Y-9.038 E27.02094
G1 X9.037 Y8.415 E28.14787
G1 X9.018 Y9.018 E28.17537
G1 X-9.018 Y-9.018 E29.33987
G1 X-9.037 Y-8.415 E29.36738
G1 X8.416 Y9.038 E30.49430
G1 X7.794 Y9.038 E30.52269
G1 X-9.037 Y-7.793 E31.60946
G1 X-9.037 Y-7.172 E31.63786
G1 X7.172 Y9.038 E32.68447
G1 X6.550 Y9.038 E32.71287
G1 X-9.037 Y-6.550 E33.71932
G1 X-9.037 Y-5.928 E33.74772
G1 X5.928 Y9.038 E34.71402
G1 X5.306 Y9.038 E34.74242
G1 X-9.037 Y-5.306 E35.66857
G1 X-9.037 Y-4.684 E35.69696
G1 X4.684 Y9.038 E36.58295
G1 X4.063 Y9.038 E36.61135
G1 X-9.037 Y-4.062 E37.45719
G1 X-9.037 Y-3.440 E37.48558
G1 X3.441 Y9.038 E38.29126
G1 X2.819 Y9.038 E38.31966
G1 X-9.037 Y-2.818 E39.08519
G1 X-9.037 Y-2.196 E39.11358
G1 X2.197 Y9.038 E39.83895
G1 X1.575 Y9.038 E39.86735
G1 X-9.037 Y-1.574 E40.55257
G1 X-9.037 Y-0.953 E40.58096
G1 X0.953 Y9.038 E41.22602
G1 X0.331 Y9.038 E41.25442
G1 X-9.037 Y-0.331 E41.85933
G1 X-9.037 Y0.291 E41.88772
G1 X-0.291 Y9.038 E42.45247
G1 X-0.913 Y9.038 E42.48087
G1 X-9.037 Y0.913 E43.00547
G1 X-9.037 Y1.535 E43.03386
G1 X-1.534 Y9.038 E43.51830
G1 X-2.156 Y9.038 E43.54670
G1 X-9.037 Y2.157 E43.99099
G1 X-9.037 Y2.779 E44.01938
G1 X-2.778 Y9.038 E44.42351
G1 X-3.400 Y9.038 E44.45191
G1 X-9.037 Y3.401 E44.81589
G1 X-9.037 Y4.023 E44.84428
G1 X-4.022 Y9.038 E45.16810
G1 X-4.644 Y9.038 E45.19650
G1 X-9.037 Y4.644 E45.48016
G1 X-9.037 Y5.266 E45.50856
G1 X-5.266 Y9.038 E45.75207
G1 X-5.888 Y9.038 E45.78047
G1 X-9.037 Y5.888 E45.98382
G1 X-9.037 Y6.510 E46.01222
G1 X-6.510 Y9.038 E46.17542
G1 X-7.132 Y9.038 E46.20381
G1 X-9.037 Y7.132 E46.32686
G1 X-9.037 Y7.754 E46.35526
G1 X-7.753 Y9.038 E46.43815
G1 X-8.375 Y9.038 E46.46654
G1 X-9.037 Y8.376 E46.50928
G1 X-9.037 Y8.998 E46.53767
G1 X-8.997 Y9.038 E46.54026
M106 S255
G1 Z0.400 F300.000
G1 X9.132 Y-9.133 F300.000
G1 X9.132 Y9.133 E47.18704 F240.000
G1 X-9.132 Y9.133 E47.83378
G1 X-9.132 Y-9.133 E48.48056
G1 X9.072 Y-9.133 E49.12518
G1 X9.700 Y-9.701 F300.000
G1 X9.700 Y9.701 E49.81218 F240.000
G1 X-9.700 Y9.701 E50.49913
G1 X-9.700 Y-9.701 E51.18613
G1 X9.640 Y-9.701 E51.87096
G1 X9.500 Y-9.354 F300.000
G1 X8.761 Y8.721 F300.000
G1 X8.721 Y8.761 E51.87265 F240.000
G1 X8.035 Y8.761 E51.89311
G1 X8.761 Y8.036 E51.92373
G1 X8.761 Y7.350 E51.94419
G1 X7.350 Y8.761 E52.00374
G1 X6.664 Y8.761 E52.02420
G1 X8.761 Y6.664 E52.11269
G1 X8.761 Y5.979 E52.13315
G1 X5.978 Y8.761 E52.25057
G1 X5.293 Y8.761 E52.27103
G1 X8.761 Y5.293 E52.41739
G1 X8.761 Y4.608 E52.43785
G1 X4.607 Y8.761 E52.61314
G1 X3.922 Y8.761 E52.63360
G1 X8.761 Y3.922 E52.83782
G1 X8.761 Y3.237 E52.85828
G1 X3.236 Y8.761 E53.09144
G1 X2.551 Y8.761 E53.11190
G1 X8.761 Y2.551 E53.37399
G1 X8.761 Y1.866 E53.39445
G1 X1.865 Y8.761 E53.68547
G1 X1.179 Y8.761 E53.70593
G1 X8.761 Y1.180 E54.02589
G1 X8.761 Y0.494 E54.04635
G1 X0.494 Y8.761 E54.39524
G1 X-0.192 Y8.761 E54.41570
G1 X8.761 Y-0.191 E54.79353
G1 X8.761 Y-0.877 E54.81399
G1 X-0.877 Y8.761 E55.22075
G1 X-1.563 Y8.761 E55.24121
G1 X8.761 Y-1.562 E55.67690
G1 X8.761 Y-2.248 E55.69736
G1 X-2.248 Y8.761 E56.16199
G1 X-2.934 Y8.761 E56.18245
G1 X8.761 Y-2.933 E56.67601
G1 X8.761 Y-3.619 E56.69647
G1 X-3.619 Y8.761 E57.21896
G1 X-4.305 Y8.761 E57.23942
G1 X8.761 Y-4.304 E57.79085
G1 X8.761 Y-4.990 E57.81131
G1 X-4.991 Y8.761 E58.39167
G1 X-5.676 Y8.761 E58.41213
G1 X8.761 Y-5.676 E59.02142
G1 X8.761 Y-6.361 E59.04188
G1 X-6.362 Y8.761 E59.68011
G1 X-7.047 Y8.761 E59.70057
G1 X8.761 Y-7.047 E60.36773
G1 X8.761 Y-7.732 E60.38819
G1 X-7.733 Y8.761 E61.08429
G1 X-8.418 Y8.761 E61.10475
G1 X8.761 Y-8.418 E61.82978
G1 X8.418 Y-8.761 E61.84425
G1 X-8.761 Y8.418 E62.56928
G1 X-8.761 Y7.732 E62.58974
G1 X7.733 Y-8.761 E63.28583
G1 X7.047 Y-8.761 E63.30629
G1 X-8.761 Y7.047 E63.97345
G1 X-8.761 Y6.361 E63.99391
G1 X6.362 Y-8.761 E64.63214
G1 X5.676 Y-8.761 E64.65260
G1 X-8.761 Y5.676 E65.26190
G1 X-8.761 Y4.990 E65.28236
G1 X4.991 Y-8.761 E65.86272
G1 X4.305 Y-8.761 E65.88318
G1 X-8.761 Y4.304 E66.43460
G1 X-8.761 Y3.619 E66.45506
G1 X3.619 Y-8.761 E66.97756
G1 X2.934 Y-8.761 E66.99802
G1 X-8.761 Y2.933 E67.49158
G1 X-8.761 Y2.248 E67.51204
G1 X2.248 Y-8.761 E67.97666
G1 X1.563 Y-8.761 E67.99712
G1 X-8.761 Y1.562 E68.43282
G1 X-8.761 Y0.877 E68.45328
G1 X0.877 Y-8.761 E68.86004
G1 X0.192 Y-8.761 E68.88050
G1 X-8.761 Y0.191 E69.25832
G1 X-8.761 Y-0.494 E69.27878
G1 X-0.494 Y-8.761 E69.62767
G1 X-1.179 Y-8.761 E69.64813
G1 X-8.761 Y-1.180 E69.96809
G1 X-8.761 Y-1.866 E69.98855
G1 X-1.865 Y-8.761 E70.27957
G1 X-2.551 Y-8.761 E70.30003
G1 X-8.761 Y-2.551 E70.56213
G1 X-8.761 Y-3.237 E70.58258
G1 X-3.236 Y-8.761 E70.81574
G1 X-3.922 Y-8.761 E70.83620
G1 X-8.761 Y-3.922 E71.04043
G1 X-8.761 Y-4.608 E71.06088
G1 X-4.607 Y-8.761 E71.23617
G1 X-5.293 Y-8.761 E71.25663
G1 X-8.761 Y-5.293 E71.40299
G1 X-8.761 Y-5.979 E71.42345
G1 X-5.978 Y-8.761 E71.54087
G1 X-6.664 Y-8.761 E71.56133
G1 X-8.761 Y-6.664 E71.64982
G1 X-8.761 Y-7.350 E71.67028
G1 X-7.350 Y-8.761 E71.72984
G1 X-8.035 Y-8.761 E71.75029
G1 X-8.761 Y-8.036 E71.78092
G1 X-8.761 Y-8.721 E71.80138
G1 X-8.721 Y-8.761 E71.80306
G1 Z0.550 F300.000
G1 X9.132 Y-9.133 F300.000
G1 X9.132 Y9.133 E72.44984 F240.000
G1 X-9.132 Y9.133 E73.09659
G1 X-9.132 Y-9.133 E73.74337
G1 X9.072 Y-9.133 E74.38799
G1 X9.700 Y-9.701 F300.000
G1 X9.700 Y9.701 E75.07498 F240.000
G1 X-9.700 Y9.701 E75.76194
G1 X-9.700 Y-9.701 E76.44893
G1 X9.640 Y-9.701 E77.13377
G1 X9.500 Y-9.354 F300.000
G1 X8.721 Y-8.761 F300.000
G1 X8.761 Y-8.721 E77.13546 F240.000
G1 X8.761 Y-8.036 E77.15591
G1 X8.035 Y-8.761 E77.18654
G1 X7.350 Y-8.761 E77.20700
G1 X8.761 Y-7.350 E77.26655
G1 X8.761 Y-6.664 E77.28701
G1 X6.664 Y-8.761 E77.37550
G1 X5.978 Y-8.761 E77.39596
G1 X8.761 Y-5.979 E77.51338
G1 X8.761 Y-5.293 E77.53384
G1 X5.293 Y-8.761 E77.68020
G1 X4.607 Y-8.761 E77.70066
G1 X8.761 Y-4.608 E77.87595
G1 X8.761 Y-3.922 E77.89641
G1 X3.922 Y-8.761 E78.10063
G1 X3.236 Y-8.761 E78.12109
G1 X8.761 Y-3.237 E78.35425
G1 X8.761 Y-2.551 E78.37471
G1 X2.551 Y-8.761 E78.63680
G1 X1.865 Y-8.761 E78.65726
G1 X8.761 Y-1.866 E78.94828
G1 X8.761 Y-1.180 E78.96874
G1 X1.179 Y-8.761 E79.28870
G1 X0.494 Y-8.761 E79.30916
G1 X8.761 Y-0.494 E79.65805
G1 X8.761 Y0.191 E79.67851
G1 X-0.192 Y-8.761 E80.05634
G1 X-0.877 Y-8.761 E80.07680
G1 X8.761 Y0.877 E80.48356
G1 X8.761 Y1.562 E80.50401
G1 X-1.563 Y-8.761 E80.93971
G1 X-2.248 Y-8.761 E80.96017
G1 X8.761 Y2.248 E81.42479
G1 X8.761 Y2.933 E81.44525
G1 X-2.934 Y-8.761 E81.93881
G1 X-3.619 Y-8.761 E81.95927
G1 X8.761 Y3.619 E82.48177
G1 X8.761 Y4.304 E82.50223
G1 X-4.305 Y-8.761 E83.05365
G1 X-4.991 Y-8.761 E83.07411
G1 X8.761 Y4.990 E83.65448
G1 X8.761 Y5.676 E83.67494
G1 X-5.676 Y-8.761 E84.28423
G1 X-6.362 Y-8.761 E84.30469
G1 X8.761 Y6.361 E84.94292
G1 X8.761 Y7.047 E84.96338
G1 X-7.047 Y-8.761 E85.63054
G1 X-7.733 Y-8.761 E85.65100
G1 X8.761 Y7.732 E86.34710
G1 X8.761 Y8.418 E86.36756
G1 X-8.418 Y-8.761 E87.09259
G1 X-8.761 Y-8.418 E87.10705
G1 X8.418 Y8.761 E87.83208
G1 X7.733 Y8.761 E87.85254
G1 X-8.761 Y-7.732 E88.54864
G1 X-8.761 Y-7.047 E88.56910
G1 X7.047 Y8.761 E89.23626
G1 X6.362 Y8.761 E89.25672
G1 X-8.761 Y-6.361 E89.89495
G1 X-8.761 Y-5.676 E89.91541
G1 X5.676 Y8.761 E90.52470
G1 X4.991 Y8.761 E90.54516
G1 X-8.761 Y-4.990 E91.12552
G1 X-8.761 Y-4.304 E91.14598
G1 X4.305 Y8.761 E91.69741
G1 X3.619 Y8.761 E91.71787
G1 X-8.761 Y-3.619 E92.24037
G1 X-8.761 Y-2.933 E92.26082
G1 X2.934 Y8.761 E92.75439
G1 X2.248 Y8.761 E92.77484
G1 X-8.761 Y-2.248 E93.23947
G1 X-8.761 Y-1.562 E93.25993
G1 X1.563 Y8.761 E93.69562
G1 X0.877 Y8.761 E93.71608
G1 X-8.761 Y-0.877 E94.12284
G1 X-8.761 Y-0.191 E94.14330
G1 X0.192 Y8.761 E94.52113
G1 X-0.494 Y8.761 E94.54159
G1 X-8.761 Y0.494 E94.89048
G1 X-8.761 Y1.180 E94.91094
G1 X-1.179 Y8.761 E95.23090
G1 X-1.865 Y8.761 E95.25136
G1 X-8.761 Y1.866 E95.54238
G1 X-8.761 Y2.551 E95.56284
G1 X-2.551 Y8.761 E95.82493
G1 X-3.236 Y8.761 E95.84539
G1 X-8.761 Y3.237 E96.07855
G1 X-8.761 Y3.922 E96.09901
G1 X-3.922 Y8.761 E96.30323
G1 X-4.607 Y8.761 E96.32369
G1 X-8.761 Y4.608 E96.49898
G1 X-8.761 Y5.293 E96.51944
G1 X-5.293 Y8.761 E96.66580
G1 X-5.978 Y8.761 E96.68626
G1 X-8.761 Y5.979 E96.80368
G1 X-8.761 Y6.664 E96.82414
G1 X-6.664 Y8.761 E96.91263
G1 X-7.350 Y8.761 E96.93309
G1 X-8.761 Y7.350 E96.99264
G1 X-8.761 Y8.036 E97.01310
G1 X-8.035 Y8.761 E97.04372
G1 X-8.721 Y8.761 E97.06418
G1 X-8.761 Y8.721 E97.06587
G1 Z0.700 F300.000
G1 X9.132 Y-9.133 F300.000
G1 X9.132 Y9.133 E97.71265 F240.000
G1 X-9.132 Y9.133 E98.35940
G1 X-9.132 Y-9.133 E99.00618
G1 X9.072 Y-9.133 E99.65080
G1 X9.700 Y-9.701 F300.000
G1 X9.700 Y9.701 E100.33779 F240.000
G1 X-9.700 Y9.701 E101.02475
G1 X-9.700 Y-9.701 E101.71174
G1 X9.640 Y-9.701 E102.39657
G1 X9.500 Y-9.354 F300.000
G1 X8.761 Y8.721 F300.000
G1 X8.721 Y8.761 E102.39826 F240.000
G1 X8.035 Y8.761 E102.41872
G1 X8.761 Y8.036 E102.44934
G1 X8.761 Y7.350 E102.46980
G1 X7.350 Y8.761 E102.52936
G1 X6.664 Y8.761 E102.54982
G1 X8.761 Y6.664 E102.63831
G1 X8.761 Y5.979 E102.65877
G1 X5.978 Y8.761 E102.77619
G1 X5.293 Y8.761 E102.79665
G1 X8.761 Y5.293 E102.94300
G1 X8.761 Y4.608 E102.96346
G1 X4.607 Y8.761 E103.13875
G1 X3.922 Y8.761 E103.15921
G1 X8.761 Y3.922 E103.36344
G1 X8.761 Y3.237 E103.38390
G1 X3.236 Y8.761 E103.61705
G1 X2.551 Y8.761 E103.63751
G1 X8.761 Y2.551 E103.89960
G1 X8.761 Y1.866 E103.92006
G1 X1.865 Y8.761 E104.21109
G1 X1.179 Y8.761 E104.23155
G1 X8.761 Y1.180 E104.55151
G1 X8.761 Y0.494 E104.57197
G1 X0.494 Y8.761 E104.92086
G1 X-0.192 Y8.761 E104.94132
G1 X8.761 Y-0.191 E105.31914
G1 X8.761 Y-0.877 E105.33960
G1 X-0.877 Y8.761 E105.74636
G1 X-1.563 Y8.761 E105.76682
G1 X8.761 Y-1.562 E106.20251
G1 X8.761 Y-2.248 E106.22297
G1 X-2.248 Y8.761 E106.68760
G1 X-2.934 Y8.761 E106.70806
G1 X8.761 Y-2.933 E107.20162
G1 X8.761 Y-3.619 E107.22208
G1 X-3.619 Y8.761 E107.74457
G1 X-4.305 Y8.761 E107.76503
G1 X8.761 Y-4.304 E108.31646
G1 X8.761 Y-4.990 E108.33692
G1 X-4.991 Y8.761 E108.91728
G1 X-5.676 Y8.761 E108.93774
G1 X8.761 Y-5.676 E109.54704
G1 X8.761 Y-6.361 E109.56750
G1 X-6.362 Y8.761 E110.20573
G1 X-7.047 Y8.761 E110.22618
G1 X8.761 Y-7.047 E110.89335
G1 X8.761 Y-7.732 E110.91381
G1 X-7.733 Y8.761 E111.60990
G1 X-8.418 Y8.761 E111.63036
G1 X8.761 Y-8.418 E112.35539
G1 X8.418 Y-8.761 E112.36986
G1 X-8.761 Y8.418 E113.09489
G1 X-8.761 Y7.732 E113.11535
G1 X7.733 Y-8.761 E113.81145
G1 X7.047 Y-8.761 E113.83190
G1 X-8.761 Y7.047 E114.49907
G1 X-8.761 Y6.361 E114.51953
